X:1
T:Title
%%score ( 1 2 ) 3
L:1/8
Q:1/4=85
M:6/8
K:Bb
V:1 treble nm="Grand Piano, Soprano"
V:2 treble 
V:3 bass nm="Choir Pad, Queens, 87.87 D"
V:1
 [DF]2 [_D=E] [=DF]2 [_EG] | [DF][DB][Dd] [=Ed]2 [Ec] | [EG]2 [FB] [EG]2 [EA] | %3
w: By~Marion~B.~Smith,~1909 * * *|||
 [EG][GB][G_d] [^F=d]3 | [Fd]2 [Fd] [=E_d]2 [F=d] | [Gf][Ge][GB] [=EB]2 [Ec] | %6
w: |||
 [Fd]2 [Fd] [Ge]2 [Fd] | .d3 z3 |[M:4/4][Q:1/4=105] FF [DB]2 [DB]2 z2 | FF [Fd]2 [Fd]2 z2 | %10
w: ||||
 [FB][FB] [GB]2- [GB][GB] [Gc]2 | [G_d]2 [^F=d]6 | [Fd][Fd] [Fd]2 [Fd]2 [=E_d]2 | %13
w: |||
 [Fd]2 [Gf]2 [Ge]2 [Fd]2 | [Ec]2 [EB][EA] [DB][Ec] [Fd]2 | [Ec]2 [DB]6- | [DB]2 z2 z4 |] %17
w: ||||
V:2
 x6 | x6 | x6 | x6 | x6 | x6 | x6 | F=E[_Ec] [DB]3 |[M:4/4] x8 | x8 | x8 | x8 | x8 | x8 | x8 | x8 | %16
 x8 |] %17
V:3
 B,,[D,F,][D,F,] B,,[D,F,][D,F,] | B,,[D,F,][D,F,] C,[=E,B,][E,B,] | %2
 F,,[F,A,][F,A,] F,,[F,A,][F,A,] | F,,[G,B,][E,G,] [D,A,]3 | B,,[F,B,][F,B,] B,,[F,B,][F,B,] | %5
 E,[G,B,][G,B,] C,[G,C][G,C] | B,,[F,B,][F,B,] B,,[F,B,][F,B,] | [F,B,]2 [F,A,] [B,,F,]3 | %8
[M:4/4] z2 [B,,F,]2 [B,,F,]2 z2 | F,F, [B,,F,]2 [B,,F,]2 z2 | %10
 [B,,B,]2 [E,B,]2- [E,B,][E,B,] [E,A,]2 | [E,G,]2 [D,A,]6 | %12
 [B,,B,][B,,B,] [B,,B,]2 [B,,B,]2 [B,,B,]2 | [B,,B,]2 [E,B,]2 [E,B,]2 [F,B,]2 | %14
 [F,A,]2 [E,G,][E,G,] [F,B,][F,A,] [F,B,]2 | [F,A,]2 [B,,F,]6- | [B,,F,]2 z2 z4 |] %17

